brands/de-tram.svg

<svg xmlns="http://www.w3.org/2000/svg" xml:space="preserve" fill="#fff" fill-rule="evenodd" viewBox="0 0 800 800"><path fill="#d82020" d="M800 800V0H0v800"/><path d="M183.34 281.14v-40.3H21.42v40.3h56.32V502.1h49.28V281.14M302.2 308.5c-3.6-1.6-11-2.3-14.5-2.3-20.3 0-34.4 8.6-46.5 28.9l-3.6-25.4h-42.2v192.4h46.5V396.9c0-24.3 6.3-49.3 34.1-49.3 4.3 0 8.6.8 12.9 2m177.8 152.5c-1.6-11.7-3.5-23.8-3.5-35.6V360.9c0-33.6-23.1-54.7-68.1-54.7-20.4 0-44.2 2.3-63 10.9l7.8 32.5c13.3-7.1 31.7-10.2 45.8-10.2 20.3 0 32.5 9 32.5 29v21.5c-7.1-1.2-16.1-3.2-29.8-3.2-43.8 0-73.9 21.5-73.9 61.4 0 35.6 19.2 57.5 56.7 57.5 21.5 0 37.6-9.4 48.5-26.2l3.5 22.7m-5-57.9c0 17.2-14.9 30.1-32.5 30.1-17.2 0-24.2-12.1-24.2-28.5 0-16.9 9.7-32.1 31.6-32.1 11.4 0 20 1.6 25.1 3.5v27zm341.3 57.9V366.4c0-33.6-16.4-60.2-52.4-60.2-25.8 0-42.6 12.9-49.7 29.3-6.2-13.7-18.4-29.3-48.8-29.3-22.7 0-40.7 11.7-48.5 29.3l-3.6-25.8h-41v192.4H562V381.3c0-19.2 7.4-41.9 27.8-41.9 17.6 0 24.6 12.1 24.6 30.5v132.2h46.2V380.5c0-19.2 7-41.1 27.7-41.1 17.6 0 24.7 13.7 24.7 30.5v132.2"/></svg>

<?xml version="1.0" encoding="UTF-8" standalone="no"?>
<svg xmlns:svg="http://www.w3.org/2000/svg" xmlns="http://www.w3.org/2000/svg" version="1.1" width="800px" height="800px" viewBox="0 0 800 800" xml:space="preserve" style="stroke:none;fill:#ffffff;fill-rule:evenodd;">
	<defs/>
	<polyline style="fill:#D82020;" points="800,800 800,0 0,0 0,800"/>
	<polyline points="183.343,281.139 183.343,240.836 21.424,240.836 21.424,281.139 77.74,281.139 77.74,502.103 127.019,502.103 127.019,281.139"/>
	<path d="M 302.2,308.5 C 298.6,306.9 291.2,306.2 287.7,306.2 267.4,306.2 253.3,314.8 241.2,335.1 L 237.6,309.7 H 195.4 V 502.1 H 241.9 V 396.9 C 241.9,372.6 248.2,347.6 276,347.6 280.3,347.6 284.6,348.4 288.9,349.6"/>
	<path d="M 466.7,502.1 C 465.1,490.4 463.2,478.3 463.2,466.5 V 360.9 C 463.2,327.3 440.1,306.2 395.1,306.2 374.7,306.2 350.9,308.5 332.1,317.1 L 339.9,349.6 C 353.2,342.5 371.6,339.4 385.7,339.4 406,339.4 418.2,348.4 418.2,368.4 V 389.9 C 411.1,388.7 402.1,386.7 388.4,386.7 344.6,386.7 314.5,408.2 314.5,448.1 314.5,483.7 333.7,505.6 371.2,505.6 392.7,505.6 408.8,496.2 419.7,479.4 L 423.2,502.1 M 418.2,444.2 C 418.2,461.4 403.3,474.3 385.7,474.3 368.5,474.3 361.5,462.2 361.5,445.8 361.5,428.9 371.2,413.7 393.1,413.7 404.5,413.7 413.1,415.3 418.2,417.2 V 444.2 z"/>
	<path d="M 759.5,502.1 V 366.4 C 759.5,332.8 743.1,306.2 707.1,306.2 681.3,306.2 664.5,319.1 657.4,335.5 651.2,321.8 639,306.2 608.6,306.2 585.9,306.2 567.9,317.9 560.1,335.5 L 556.5,309.7 H 515.5 V 502.1 H 562 V 381.3 C 562,362.1 569.4,339.4 589.8,339.4 607.4,339.4 614.4,351.5 614.4,369.9 V 502.1 H 660.6 V 380.5 C 660.6,361.3 667.6,339.4 688.3,339.4 705.9,339.4 713,353.1 713,369.9 V 502.1"/>
</svg>
